X:1
T:12 New Songs by some of the best and best-known British composers
T:The Windflower
T:To H.R.H. The Princess Louise (Marchioness of Lorne) 
T:12 New Songs
T:Charles Wood
T:12. The Windflower
T:Harold Boulton 
T:Creative Commons copyright waiver (CC0 1.0 Universal)
T:Creative Commons copyright waiver (CC0 1.0 Universal)
T:Creative Commons copyright waiver (CC0 1.0 Universal)
T:Creative Commons copyright waiver (CC0 1.0 Universal)
T:Creative Commons copyright waiver (CC0 1.0 Universal)
T:Creative Commons copyright waiver (CC0 1.0 Universal)
T:Creative Commons copyright waiver (CC0 1.0 Universal)
C:Charles Wood
Z:Harold Boulton (also series editor)
Z:Creative Commons copyright waiver (CC0 1.0 Universal)
%%score ( 1 2 ) { ( 3 5 ) | ( 4 6 ) }
L:1/8
Q:1/4=100
M:3/4
K:F
V:1 treble nm="Voice"
V:2 treble 
V:3 treble nm="Piano"
V:5 treble 
V:4 bass 
V:6 bass 
V:1
"^Poco Allegretto" z6 | z2"^poco rit."[Q:1/4=85] z2[Q:1/4=80] z"^dolce" A[Q:1/4=90] | %2
w: |Ere|
"^a tempo"[Q:1/4=100] c3 A F A | D2 D3 F |!<(! E F G2!<)! B2 |!>(! d2 c3!>)! A | G C F3 E | %7
w: buds and blades are|spring- ing, Or|swal- lows north- ward|wing- ing, The|white wind- flower ap-|
 G2 z2 z C | D3 E/ E/ F C | (B>c) B3 D |"^cresc." E3 F G C | (c>d) c3 A |!f!"^dim." d3 c B D | %13
w: pears. In|ma- ny an up- land|val- * ley And|frost- bound wood- land|al- * ley Her|star- like head she|
 (F2 E4) | z C!<(! c4-!<)! |[Q:1/4=90]"^rall." c F[Q:1/4=85] B3 A[Q:1/4=80] |[Q:1/4=75] A6 | %17
w: rears, _|Her star-|* like head she|rears.|
 z6[Q:1/4=100] | z6 |[Q:1/4=95] z2"^poco rit."[Q:1/4=85] z2 z A |"^a tempo"[Q:1/4=100] c3 A F A | %21
w: ||The|cold east wind hath|
 D2 D3 F | E F G2 B2 |!>(! d2!>)! c3 A | G C F3 E | G2 z2 z C | D3 E F C | (B>c) B3 D | %28
w: kissed her, The|snow- flakes call her|“sis- ter”, And|nes- tle at her|side. So|meek she lives and|low- * ly, So|
"^cresc." E3 F G C | (c>d) c3 A |!f! d3"^dim." c B D | (F2 E4) |!p! z C!<(! c4-!<)! | %33
w: fra- gile pure and|ho- * ly, The|spring’s un- sul- lied|bride _|The spring’s|
[Q:1/4=95]"^rall." c F[Q:1/4=90] B3 A[Q:1/4=85] |[Q:1/4=80] A6[Q:1/4=78] | %35
w: _ un- sul- lied|bride.|
[Q:1/4=75] z2 z2"^a tempo"[Q:1/4=100] z C | c _A F2 A2 | _D2 D3 F |"^cresc." _E F _A2 B2 | %39
w: But,|when the hot sun|show- ers His|strength on sum- mer|
!f! _e2!>(! e3!>)! c |[Q:1/4=95]"^rall." B[Q:1/4=90] _E[Q:1/4=85] _A3[Q:1/4=75] G[Q:1/4=80] | %41
w: flow- ers, Her|short sweet life is|
"^a tempo"[Q:1/4=100] B2 z2 z2 | z2 z2 z!p! _E | F3 G _A _E | (c>_d) c3 F |"^cresc." _G3 =A B F | %46
w: done.|So|we one day dis-|cov- * er Our|life’s first bloom is|
 (_e>f) e3!ff! _d |!>(! _g6-!>)! | _g!f! _G _c3 B | %49
w: o- * ver, Our|Love’s|_ first pro- mise|
[Q:1/4=95]"^rall." !>!_d4 z!mf![Q:1/4=80] =c[Q:1/4=90][Q:1/4=85] |[Q:1/4=75]!<(! f6-!<)! | %51
w: gone, Our|Love’s|
!mp! f!p! F B3 A |"^a tempo"[Q:1/4=100] F6- |[Q:1/4=90] F z[Q:1/4=80] z2[Q:1/4=70] z2 | %54
w: _ first pro- mise|gone.|_|
 !fermata!z6 |] %55
w: |
V:2
 x6 | x6 | x6 | x6 | x6 | x6 | x6 | x6 | x6 | x6 | x6 | x6 | x6 | x6 | x2 x2!>(! x2!>)! | x6 | x6 | %17
 x4 x"^a tempo" x | x6 | x6 | x6 | x6 | x6 | x6 | x6 | x6 | x6 | x6 | x6 | x6 | x6 | x6 | %32
 x2 x2!>(! x2!>)! | x6 | x6 | x6 | x6 | x6 | x6 | x6 | x6 | x6 | x6 | x6 | x6 | x6 | x6 | x6 | x6 | %49
 x6 | x2 x/!>(! x/ x x2!>)! | x6 | x6 | x6 | x6 |] %55
V:3
 c3 (c c'2-) | c'[K:bass]"_poco rit."!p! (F, B,3 A,) | %2
"^a tempo" z ([C,F,A,]2 [F,A,C]2[K:treble] [A,CF]) | z (.[A,CD]2 .[B,D]2) [A,B,-F] | %4
!<(! (EF G2!<)! B2 |!>(! [DF-d]2 [CF-c]2!>)! [CFA]2) | ([CG]2 F4) |!<(! (GC!<)!!>(! F>!>)!E G2) | %8
 z ([F,B,D]2 [G,CE]) z [A,CF] | z!<(! ([B,DF]2!<)!!>(! [B,DG]2 [B,DF])!>)! | %10
 z"_cresc." ([G,B,E]2 [A,CF]) z [CEG] | z!<(! ([C_EG]2!<)!!>(! [CEA]2 [A,CG])!>)! | %12
 z!mf! ([A,C^F]2 [CDA]) z [B,DG] | z!<(! ([G,B,]2!<)!!>(! [G,B,G]2!>)! [G,B,E]) | %14
!p! z!<(! ([CEG]2 [EGc]2 [FAf]-)!<)! |!>(!"_rall." [FAf]2 B4!>)! |!pp! z2 !arpeggio![A,CA]4 | %17
 !arpeggio![A,CF]4- [A,CF]"^a tempo" (C | c3) (c c'2-) | c'[K:bass]"_poco rit." (F, B,3 A,) | %20
"^a tempo" z ([C,F,A,]2 [F,A,C]2[K:treble] [A,CF]) | z [A,CD]2 [B,D]2 [A,B,-F] | %22
!<(! (EF G2 B2!<)! |!>(! [DF-d]2 [CF-c]2!>)! [CFA]2) | G2 F4 |!<(! (GC!<)!!>(! F>!>)!E G2) | %26
 z ([F,B,D]2 [G,CE]) z [A,CF] | z!<(! ([B,DF]2!<)!!>(! [B,DG]2 [B,DF])!>)! | %28
"_cresc." z ([G,B,E]2 [A,CF]) z [CEG] | z!<(! ([C_EG]2!<)!!>(! [CEA]2!>)! [A,CG]) | %30
 z!mf! ([A,C^F]2 [CDA]) z [B,DG] | z!<(! ([G,B,]2!<)!!>(! [G,B,G]2!>)! [G,B,E]) | %32
!p! z!<(! ([CEG]2 [EGc]2 [FAf]-)!<)! |!>(!"_rall." [FAf]2 B4!>)! |!pp! z2 !arpeggio![A,CA]4 | %35
 !arpeggio![A,CF]4[K:bass]"^a tempo"!mp! !>![F,_A,C]2- | %36
 (3[F,_A,C][C,F,A,][C,F,A,]- [C,F,A,][F,A,C] (3[F,A,C][K:treble][_A,_DF][A,DF]- | %37
 (3[A,DF][F,_A,_D][F,A,D]- [F,A,D][F,A,D]- (3[F,A,D][F,A,D][F,A,D] |"_cresc." (3:2:2(_E2 F _A2 B2 | %39
!f! _d2 c2"^missing accidental on Eb (beat 3, RH)" !courtesy!_e2) | %40
!p! (.[B,_EGB]!<(!.[_CE_c])!<)!!>(! ([=CE=c]2!>)! [DB]2) |"^a tempo" (B_E _A>G) (GF) | %42
 (B_E _A>G B2) |!p! (3z [F,_A,F][F,A,F]- [F,A,F][G,B,G] (3z [A,_E_A][A,EA] | %44
 (3z [G,C=E][G,CE]- [G,CE][_A,CF]- (3[A,CF][A,CF][A,CF] | %45
 (3z"_cresc." [_G,B,_G][G,B,G]- [G,B,G][=A,C=A] (3z [B,FB][B,FB] | %46
 (3z [B,_EB][B,EB]- [B,EB][A,EA]- (3[A,EA][B,_DB][B,DB] | z _G!ff!!>(! ([Ff]3 [_E_e]!>)! | %48
 [_D_G_d]) z z2 [_CF_c]2 | %49
[K:bass] (3z!f! [_D,F,B,]"_rall."[D,F,B,]-!>(! [D,F,B,][F,B,-_D-] [B,D]!>)!C | %50
[K:treble] z!<(! F!<)!!f!!>(! [Ece]3 [=DB=d]!>)! |!p! [CAc] z z [F,B,-D] [G,B,CE]2 | %52
[K:bass] (3z!mf! [D,F,=B,]!>(![D,F,B,]- [D,F,B,][D,F,B,]- [D,F,B,][C,F,C]- | %53
"_rall." [C,F,C]2 [C,F,A,]4!>)! |[K:treble]!pp! !fermata![Af]6 |] %55
V:4
!ped! C,3 (C, C,,2-) | C,,!ped-up!!<(! ([A,,C,]!<)!!>(! [G,,D,]2!>)! C,,2) | z2 (F,,2 D,,2) | %3
 z2 (G,2 G,,2) | C,D, E,2 G,2 | B,2 A,2 F,2 | (E,2 D,2 G,2) | G,,,E, D,2 E,2 | z2 (B,,2 A,,2) | %9
 z2 (G,,2 G,2) | z2 (C,2 B,,2) | z2 (A,,2 _E,2) | z2"^dim." (D,2 G,2) | (!>!_D,4 C,2) | %14
 (B,,4 A,,F,, | C,,2) [C,G,]4 | z2!ped! !arpeggio![F,,C,F,]4 | %17
 !arpeggio![F,,C,F,]4-!ped-up! [F,,C,F,]!ped! (C | C,3) (C, C,,2-) | %19
 C,,!ped-up!!p!!<(! ([A,,C,]!<)!!>(! [G,,D,]2!>)! C,,2) | z2 (F,,2 D,,2) | z2 (G,2 G,,2) | %22
 C,D, E,2 G,2 | B,2 A,2 F,2 | (E,2 D,2 G,2) | G,,,E, D,2 E,2 | z2 (B,,2 A,,2) | z2 (G,,2 G,2) | %28
 z2 (C,2 B,,2) | z2 (A,,2 _E,2) | z2"^dim." (D,2 G,2) | (!>!_D,4 C,2) | (B,,4 A,,F,, | %33
 C,,2) [C,G,]4 | z2 !arpeggio![F,,C,F,]4 | !arpeggio![F,,C,F,]4 z2 | %36
 [F,,,F,,]2 [_E,,,_E,,]2 [_D,,,_D,,]2 | [C,,,C,,]2 [B,,,,B,,,]2 [B,,,B,,]2 | %38
 [_E,,,_E,,]2 [E,,F,]2 [E,,G,]2 | B,2 _A,2 _G,2 | [B,,,B,,][B,,_G,=A,] [B,,F,_A,]4 | %41
 B,,,G, F,2 B,_A, | B,,,G, F,2 G,2 | ([_E,,_E,]2 [_D,,_D,]2 [C,,C,]2 | %44
 [B,,,B,,]2 [_A,,,_A,,]2) ([F,,F,]2- | [F,,F,]2 [_E,,_E,]2 [_D,,_D,]2 | %46
 [C,,C,]2 [F,,,F,,]2 [B,,,B,,]2) | z ([_G,,_G,] G,4- | [B,,_G,B,]) z z2 [_A,,_D,_A,]2 | %49
 z2 [=G,,,=G,,]4 | z F, C3 B, | A, z z2 [C,,C,]2 | z2 ([^G,,,^G,,]2 [A,,,A,,]2 | %53
 [F,,,F,,]2) [F,,,F,,]4- | [F,C]6 |] %55
V:5
 x6 | x[K:bass] F,- F,2 [E,G,]2 | x5[K:treble] x | x6 | [G,B,]4 [CE]2 | x6 | x2 A,2 =B,2 | %7
 G,2 A,=B, C2 | x6 | x6 | x6 | x6 | x6 | x6 | x6 | x2 F2 E2 | x6 | x6 | x6 | %19
 x[K:bass] F,- F,2 [E,G,]2 | x5[K:treble] x | x6 | [G,B,]4 [CE]2 | x6 | C2 A,2 =B,2 | %25
 G,2 A,=B, C2 | x6 | x6 | x6 | x6 | x6 | x6 | x6 | x2 F2 E2 | x6 | x4[K:bass] x2 | %36
 x14/3[K:treble] x4/3 | x6 | (3_E[G,_D][_A,D] _A[A,DF] (3BB,[DE] | %39
 (3_d_D!>(![_EG] c[CE_A] (3_eE!>)![_Gc] | x6 | B,2 C-!<(![C=E] D2!<)! | B,2 CD _E2 | x6 | x6 | x6 | %46
 x6 | x _G G4- | x6 |[K:bass] x2 x2 E,2 |[K:treble] x6 | x6 |[K:bass] x6 | x6 |[K:treble] x6 |] %55
V:6
 x6 | x6 | x6 | x6 | (C,2 E,C,, G,C,, | B,F,, A,F,,- F,,2) | G,,6 | G,,,2 G,,2 C,,2 | x6 | x6 | %10
 x6 | x6 | x6 | x6 | x6 | x6 | x6 | x6 | x6 | x6 | x6 | x6 | C,2 E,C,, G,C,, | B,F,, A,F,,- F,,2 | %24
 G,,6 | (G,,,2 G,,2 C,,2) | x6 | x6 | x6 | x6 | x6 | x6 | x6 | x6 | x6 | x6 | x6 | x6 | x6 | %39
 _A,,4 =A,,2 | x6 | B,,,2 B,,4 | (B,,,2 B,,2 _E,,2) | x6 | x6 | x6 | x6 | x2 [_D,_D]3 [_C,_C] | %48
 x6 | x6 | x A,, [B,,F,]4 | [C,F,] x x2 x2 | x6 | x6 | !fermata![F,,,F,,]6 |] %55

